src/images/profile.svg

<svg width="100" height="32" viewBox="0 0 100 32" fill="none" xmlns="http://www.w3.org/2000/svg">
<rect opacity="0.2" x="1" y="1" width="98" height="30" rx="15" stroke="#AAAAAA" stroke-width="2"/>
<path d="M32.9787 21H31.348L35.0121 10.8182H36.7869L40.451 21H38.8203L35.9418 12.6676H35.8622L32.9787 21ZM33.2521 17.0128H38.5419V18.3054H33.2521V17.0128ZM41.802 21V13.3636H43.2885V16.5653H44.0044L46.525 13.3636H48.3645L45.4064 17.0774L48.3993 21H46.5549L44.253 17.9474H43.2885V21H41.802ZM49.554 21V13.3636H51.0405V16.5653H51.7564L54.277 13.3636H56.1165L53.1584 17.0774L56.1513 21H54.3068L52.005 17.9474H51.0405V21H49.554ZM59.5282 21.169C59.0443 21.169 58.6068 21.0795 58.2157 20.9006C57.8246 20.7183 57.5147 20.4548 57.286 20.1101C57.0607 19.7654 56.948 19.3428 56.948 18.8423C56.948 18.4115 57.0308 18.0568 57.1966 17.7784C57.3623 17.5 57.586 17.2796 57.8677 17.1172C58.1494 16.9548 58.4643 16.8321 58.8123 16.7493C59.1603 16.6664 59.515 16.6035 59.8762 16.5604C60.3336 16.5073 60.7048 16.4643 60.9899 16.4311C61.2749 16.3946 61.4821 16.3366 61.6113 16.2571C61.7406 16.1776 61.8052 16.0483 61.8052 15.8693V15.8345C61.8052 15.4003 61.6826 15.0639 61.4373 14.8253C61.1954 14.5866 60.8341 14.4673 60.3535 14.4673C59.853 14.4673 59.4586 14.5784 59.1703 14.8004C58.8852 15.0192 58.688 15.2628 58.5787 15.5312L57.1816 15.2131C57.3474 14.7491 57.5893 14.3745 57.9075 14.0895C58.229 13.8011 58.5985 13.5923 59.0162 13.4631C59.4338 13.3305 59.8729 13.2642 60.3336 13.2642C60.6386 13.2642 60.9617 13.3007 61.3031 13.3736C61.6478 13.4432 61.9693 13.5724 62.2676 13.7614C62.5692 13.9503 62.8161 14.2204 63.0083 14.5717C63.2006 14.9197 63.2967 15.3722 63.2967 15.929V21H61.845V19.956H61.7853C61.6892 20.1482 61.545 20.3371 61.3528 20.5227C61.1606 20.7083 60.9136 20.8625 60.612 20.9851C60.3104 21.1077 59.9492 21.169 59.5282 21.169ZM59.8514 19.9759C60.2624 19.9759 60.6137 19.8946 60.9054 19.7322C61.2003 19.5698 61.4241 19.3577 61.5765 19.0959C61.7323 18.8307 61.8102 18.5473 61.8102 18.2457V17.2614C61.7572 17.3144 61.6544 17.3641 61.502 17.4105C61.3528 17.4536 61.1821 17.4917 60.9899 17.5249C60.7976 17.5547 60.6104 17.5829 60.4281 17.6094C60.2458 17.6326 60.0933 17.6525 59.9707 17.669C59.6824 17.7055 59.4189 17.7668 59.1802 17.853C58.9449 17.9392 58.756 18.0634 58.6135 18.2259C58.4743 18.3849 58.4047 18.5971 58.4047 18.8622C58.4047 19.2301 58.5405 19.5085 58.8123 19.6974C59.0841 19.883 59.4305 19.9759 59.8514 19.9759ZM65.9428 23.8636C65.7208 23.8636 65.5186 23.8454 65.3363 23.8089C65.154 23.7758 65.0181 23.7393 64.9286 23.6996L65.2866 22.4815C65.5584 22.5545 65.8003 22.5859 66.0124 22.576C66.2246 22.5661 66.4118 22.4865 66.5742 22.3374C66.7399 22.1882 66.8858 21.9446 67.0117 21.6065L67.1957 21.0994L64.4016 13.3636H65.9925L67.9265 19.2898H68.006L69.94 13.3636H71.5359L68.3888 22.0192C68.243 22.4169 68.0574 22.7533 67.832 23.0284C67.6067 23.3068 67.3382 23.5156 67.0266 23.6548C66.7151 23.794 66.3538 23.8636 65.9428 23.8636ZM78.1083 16.5405V17.8281H73.9719V16.5405H78.1083ZM74.3896 13.3636V21H72.9329V13.3636H74.3896ZM79.1474 13.3636V21H77.6957V13.3636H79.1474ZM80.1889 14.6463V13.3636H86.6321V14.6463H84.1413V21H82.6896V14.6463H80.1889Z" fill="black"/>
<path fill-rule="evenodd" clip-rule="evenodd" d="M20 13C20 14.1046 19.1046 15 18 15C16.8954 15 16 14.1046 16 13C16 11.8954 16.8954 11 18 11C19.1046 11 20 11.8954 20 13ZM22 13C22 15.2091 20.2091 17 18 17C15.7909 17 14 15.2091 14 13C14 10.7909 15.7909 9 18 9C20.2091 9 22 10.7909 22 13ZM16 18C13.7909 18 12 19.7909 12 22V23H14V22C14 20.8954 14.8954 20 16 20H20C21.1046 20 22 20.8954 22 22V23H24V22C24 19.7909 22.2091 18 20 18H16Z" fill="black"/>
</svg>

<svg xmlns="http://www.w3.org/2000/svg" width="100" height="32" fill="none"><rect width="98" height="30" x="1" y="1" stroke="#AAA" stroke-width="2" opacity=".2" rx="15"/><path fill="#000" d="M32.979 21h-1.631l3.664-10.182h1.775L40.45 21h-1.63l-2.88-8.332h-.079L32.98 21Zm.273-3.987h5.29v1.292h-5.29v-1.292ZM41.802 21v-7.636h1.486v3.201h.716l2.521-3.201h1.84l-2.959 3.713L48.4 21h-1.844l-2.302-3.053h-.965V21h-1.486Zm7.752 0v-7.636h1.486v3.201h.716l2.521-3.201h1.84l-2.959 3.713L56.151 21h-1.844l-2.302-3.053h-.965V21h-1.486Zm9.974.169a3.12 3.12 0 0 1-1.312-.268 2.211 2.211 0 0 1-.93-.79c-.225-.346-.338-.768-.338-1.269 0-.43.083-.785.249-1.064.165-.278.389-.498.67-.66.282-.163.597-.286.945-.369a9.387 9.387 0 0 1 1.064-.189l1.114-.129c.285-.036.492-.094.621-.174.13-.08.194-.209.194-.388v-.034c0-.435-.122-.771-.368-1.01-.242-.238-.603-.358-1.084-.358-.5 0-.894.111-1.183.333-.285.22-.482.463-.591.731l-1.397-.318c.165-.464.407-.838.725-1.123a2.942 2.942 0 0 1 1.11-.627 4.327 4.327 0 0 1 1.317-.199c.305 0 .628.037.97.11.344.07.665.198.964.387.301.19.548.46.74.81.193.349.289.801.289 1.358V21h-1.452v-1.044h-.06c-.096.192-.24.381-.432.567-.192.185-.44.34-.741.462-.302.123-.663.184-1.084.184Zm.323-1.193c.411 0 .763-.081 1.054-.244.295-.162.52-.374.672-.636a1.65 1.65 0 0 0 .233-.85v-.985c-.053.053-.156.103-.308.15a4.81 4.81 0 0 1-.512.114c-.192.03-.38.058-.562.084l-.457.06a3.688 3.688 0 0 0-.79.184c-.236.086-.425.21-.567.373-.14.159-.21.371-.21.636 0 .368.136.647.408.835.272.186.619.279 1.04.279Zm6.092 3.888c-.222 0-.424-.019-.607-.055a1.912 1.912 0 0 1-.407-.11l.358-1.218c.271.073.513.105.725.095.213-.01.4-.09.562-.239.166-.149.312-.392.438-.73l.184-.508-2.794-7.735h1.59l1.934 5.926h.08l1.934-5.926h1.596l-3.147 8.655a3.452 3.452 0 0 1-.557 1.01 2.16 2.16 0 0 1-.805.626c-.312.139-.673.209-1.084.209Zm12.165-7.323v1.287h-4.136v-1.287h4.136Zm-3.718-3.177V21h-1.457v-7.636h1.457Zm4.757 0V21h-1.451v-7.636h1.451Zm1.042 1.282v-1.282h6.443v1.282h-2.49V21H82.69v-6.354h-2.501Z"/><path fill="#000" fill-rule="evenodd" d="M20 13a2 2 0 1 1-4 0 2 2 0 0 1 4 0Zm2 0a4 4 0 1 1-8 0 4 4 0 0 1 8 0Zm-6 5a4 4 0 0 0-4 4v1h2v-1a2 2 0 0 1 2-2h4a2 2 0 0 1 2 2v1h2v-1a4 4 0 0 0-4-4h-4Z" clip-rule="evenodd"/></svg>
